website/media/images/svg/search.svg

<svg width="21" height="21" viewBox="0 0 21 21" fill="none" xmlns="http://www.w3.org/2000/svg">
<path d="M20.3291 19.1277L15.3311 13.9295C16.6162 12.4018 17.3203 10.4797 17.3203 8.47874C17.3203 3.80364 13.5166 0 8.84153 0C4.16643 0 0.362793 3.80364 0.362793 8.47874C0.362793 13.1538 4.16643 16.9575 8.84153 16.9575C10.5966 16.9575 12.2692 16.4281 13.6991 15.4232L18.7351 20.6609C18.9456 20.8795 19.2287 21 19.5321 21C19.8193 21 20.0917 20.8905 20.2985 20.6914C20.7379 20.2686 20.752 19.5675 20.3291 19.1277ZM8.84153 2.21185C12.2972 2.21185 15.1084 5.0231 15.1084 8.47874C15.1084 11.9344 12.2972 14.7456 8.84153 14.7456C5.38589 14.7456 2.57464 11.9344 2.57464 8.47874C2.57464 5.0231 5.38589 2.21185 8.84153 2.21185Z" fill="white"/>
</svg>

<svg width="21" height="21" viewBox="0 0 21 21" fill="none" xmlns="http://www.w3.org/2000/svg"><path d="M20.33 19.128l-5-5.198a8.452 8.452 0 001.99-5.451C17.32 3.804 13.516 0 8.84 0 4.167 0 .364 3.804.364 8.479c0 4.675 3.803 8.479 8.479 8.479 1.755 0 3.427-.53 4.857-1.535l5.036 5.238a1.1 1.1 0 00.797.339 1.107 1.107 0 00.797-1.872zM8.841 2.212a6.274 6.274 0 016.266 6.267 6.274 6.274 0 01-6.266 6.267 6.274 6.274 0 01-6.267-6.267 6.274 6.274 0 016.267-6.267z" fill="#fff"/></svg>
